X: 147
T: the Harp That Once Through Tara's Halls
C: music: Irish Tune
C: words: Thomas Moore
%R: air, march
B: "The Everyday Song Book", 1927
F: http://www.library.pitt.edu/happybirthday/pdf/The_Everyday_Song_Book.pdf
Z: 2017 John Chambers <jc:trillian.mit.edu>
N: The final D has a dot, which with the rest gives a "stumble" on repeats.  Fixed by deleting the dot.
M: C
L: 1/4
K: D
% - - - - - - - - - - - - - - - - - - - - - - - - - - - - -
D | A> B A F | B> c d B | A F E> F | D2 z ||
%
w: 1.~The harp that once thro' Ta-ra's halls The soul of mu-sic shed,
w: 2.~No more to chiefs and la-dies bright   The harp of Ta-ra swells;
A | d> c d e | d c B A | B A d F | A2 z ||
%
w: Now hangs as mute on Ta-ra's walls     As if that soul were fled.
w: The chord a-lone that breaks at night, Its tale of ru-in tells.
A | d> c d e | d c B A | B A G F | B2 z ||
%
w: So sleeps the pride of for-mer days,  So glo-ry's thrill is o'er;
w: Thus free-dom now so sel-dom wakes, The on-ly throb she gives
c | d> c B A | B c d zB | A F E> F | D2 z |]
w: And hearts that once beat high for praise Now feel that pulse no more.
w: Is when some heart in-dig-nant breaks,    To show that still she lives.
% - - - - - - - - - - - - - - - - - - - - - - - - - - - - -
